Sources/FrostedUI/Resources/Icons.xcassets/xDotCom24.imageset/x-dot-com-24.svg

<svg width="24" height="24" viewBox="0 0 24 24" fill="none" xmlns="http://www.w3.org/2000/svg" data-fui-icon="true">
  <path
    d="M17.4033 3.5H20.2852L13.989 10.701L21.396 20.5H15.5964L11.054 14.557L5.85637 20.5H2.97269L9.70709 12.7977L2.60156 3.5H8.54839L12.6544 8.93215L17.4033 3.5ZM16.3918 18.7738H17.9887L7.68067 5.13549H5.96702L16.3918 18.7738Z"
    fill="currentColor"
  />
</svg>

<svg xmlns="http://www.w3.org/2000/svg" width="24" height="24" fill="none" data-fui-icon="true" viewBox="0 0 24 24"><path fill="currentColor" d="M17.403 3.5h2.882l-6.296 7.201 7.407 9.799h-5.8l-4.542-5.943L5.856 20.5H2.973l6.734-7.702L2.602 3.5h5.946l4.106 5.432zm-1.011 15.274h1.597L7.68 5.135H5.967z"/></svg>
